X: 10071
T: MISS BUSHBY MAITLAND'S REEL
R: reel
B: K\"ohler's Violin Repository, v.1, 1885 p.7 #1
F: http://www.archive.org/details/klersviolinrepos01edin
Z: 2011 John Chambers <jc:trillian.mit.edu>
M: C|
L: 1/8
K: D
A |\
FDAF d2dA | d2df eEEA |\
[1 FDFA e2eB | (cd)eg fdd :|\
[2 FDAF dABG | FAdg fdd |]
g |\
fede fgaf | gfed cAeg |\
fede fgaf | ecdB Addg |\
fdgg fgag | gfed cAeg |\
fdgb afge | fdec dDD |]

%%sep 2 1 500

